!!!OTL: HIEZT HAB I MEIN TREUHEIT
!!!ARE: Europa, Mitteleuropa, Oesterreich
!!!SCT: E0723
!!!YEM: Copyright 1995, estate of Helmut Schaffrath.
**kern
*ICvox
*Ivox
*M3/4
*k[f#]
*G:
{4dd
=1
4dd
8dd
8b
4ee
=2
4cc
8cc
8a}
{4f#
=3
4a
8a
8d
4b
=4
4g}
{8g
8a
8b
8cc
=5
4dd
8dd
8b
4ee
=6
4cc
8cc
8a}
{4f#
=7
4a
8a
8d
4b
=8
4g
4r}
==
!!!AGN: Liebes - Lied, Leid, Klage
!!!ONB: ESAC (Essen Associative Code) Database: ERK2
!!!AMT: simple triple
!!!AIN: vox
!!!EED: Helmut Schaffrath
!!!EEV: 1.0
*-
